X:260
T:B260-  Joy to the Person of My Love
Q:1/4=120
M:C|
L:1/4
K:Dm
dA/2B/2cF|G/2A/2B/2c/2A3/2A/2|G/2F/2E/2D/2E3/2D/2|D4|:\
D/2E/2F/2G/2Ad/2e/2|f/2d/2e/2c/2dA/2B/2|c3/2 B/4A/4G3/2F/2|F4::\
cA/2F/2c3/2c/2|d/2D/2F/2G/2A3/2A/2|G/2F/2E/2D/2E3/2D/2|D4:|]

